packages/design-assets/icons/16px/Plus.svg

<svg width="16" height="16" xmlns="http://www.w3.org/2000/svg"><path d="M14 7H9V2c0-.6-.4-1-1-1s-1 .4-1 1v5H2c-.6 0-1 .4-1 1s.4 1 1 1h5v5c0 .6.4 1 1 1s1-.4 1-1V9h5c.6 0 1-.4 1-1s-.4-1-1-1z" fill="#818F99" fill-rule="evenodd"/></svg>

<?xml version="1.0" encoding="UTF-8"?>
<svg width="16px" height="16px" viewBox="0 0 16 16" version="1.1" xmlns="http://www.w3.org/2000/svg" xmlns:xlink="http://www.w3.org/1999/xlink">
    <!-- Generator: Sketch 54.1 (76490) - https://sketchapp.com -->
    <title>Icons/16px/Plus</title>
    <desc>Created with Sketch.</desc>
    <g id="Icons/16px/Plus" stroke="none" stroke-width="1" fill="none" fill-rule="evenodd">
        <path d="M14,7 L9,7 L9,2 C9,1.4 8.6,1 8,1 C7.4,1 7,1.4 7,2 L7,7 L2,7 C1.4,7 1,7.4 1,8 C1,8.6 1.4,9 2,9 L7,9 L7,14 C7,14.6 7.4,15 8,15 C8.6,15 9,14.6 9,14 L9,9 L14,9 C14.6,9 15,8.6 15,8 C15,7.4 14.6,7 14,7 Z" id="i-16-plus" fill="#818F99"></path>
    </g>
</svg>
